public/images/icons/quote.svg

<svg width="33" height="29" xmlns="http://www.w3.org/2000/svg" fill="none">

 <g>
  <title>Layer 1</title>
  <path id="svg_1" fill="#1fc464" d="m29.9062,14.5l-5.1562,0l0,-4.1429c0,-2.285 1.8498,-4.14281 4.125,-4.14281l0.5156,0c0.8573,0 1.5469,-0.69264 1.5469,-1.55358l0,-3.10714c0,-0.86094 -0.6896,-1.55357 -1.5469,-1.55357l-0.5156,0c-5.6977,0 -10.3125,4.63482 -10.3125,10.3571l0,15.5358c0,1.7154 1.3857,3.1071 3.0937,3.1071l8.25,0c1.7081,0 3.0938,-1.3917 3.0938,-3.1071l0,-8.2858c0,-1.7154 -1.3857,-3.1071 -3.0938,-3.1071zm-18.5624,0l-5.1563,0l0,-4.1429c0,-2.285 1.8498,-4.14281 4.125,-4.14281l0.5156,0c0.8573,0 1.5469,-0.69264 1.5469,-1.55358l0,-3.10714c0,-0.86094 -0.6896,-1.55357 -1.5469,-1.55357l-0.5156,0c-5.69766,0 -10.3125,4.63482 -10.3125,10.3571l0,15.5358c0,1.7154 1.38574,3.1071 3.09375,3.1071l8.25005,0c1.708,0 3.0937,-1.3917 3.0937,-3.1071l0,-8.2858c0,-1.7154 -1.3857,-3.1071 -3.0937,-3.1071z"/>
 </g>
</svg>

<svg width="33" height="29" viewBox="0 0 33 29" fill="none" xmlns="http://www.w3.org/2000/svg">
<path d="M29.9062 14.5H24.75V10.3571C24.75 8.0721 26.5998 6.21429 28.875 6.21429H29.3906C30.2479 6.21429 30.9375 5.52165 30.9375 4.66071V1.55357C30.9375 0.692634 30.2479 0 29.3906 0H28.875C23.1773 0 18.5625 4.63482 18.5625 10.3571V25.8929C18.5625 27.6083 19.9482 29 21.6562 29H29.9062C31.6143 29 33 27.6083 33 25.8929V17.6071C33 15.8917 31.6143 14.5 29.9062 14.5ZM11.3438 14.5H6.1875V10.3571C6.1875 8.0721 8.0373 6.21429 10.3125 6.21429H10.8281C11.6854 6.21429 12.375 5.52165 12.375 4.66071V1.55357C12.375 0.692634 11.6854 0 10.8281 0H10.3125C4.61484 0 0 4.63482 0 10.3571V25.8929C0 27.6083 1.38574 29 3.09375 29H11.3438C13.0518 29 14.4375 27.6083 14.4375 25.8929V17.6071C14.4375 15.8917 13.0518 14.5 11.3438 14.5Z" fill="#FE6019"/>
</svg>
